X: 2
T: The Rose Of Rothes
R: polka
M: 2/4
L: 1/8
K: Ador
|:G2 Ac|B3 G|cB G2|E4|d2 GA|B2 BA|A4|
[1 AB AG|E2 D2|D4|D2 Gc|B2 cd|ee dB|d2 B2|(A4|A4):|
[2 AD GA|B2 Bc|A2 AG|B2 cd|e2 fg|ee dB|d2 B2|A4|AB AG||
|:E2 A2|A2 GA|Bc (A2|A)B AG|E3 A|AG AB|A4|
[1 dc BA|E2 D2|D4|D2 Gc|B2 cd|ee dB|d2 B2|A4|AB AG:|
[2 BA GA|B2 Bc|A2 AG|B2 cd|e2 fg|ee dB|d2 B2|A4|A2 AG||
cB Gc|BG E2|A2 AG|G2 (3ABc|d2 G2|FG E2|E2 D2|D2 (3EFG|
A2 (A2|A2) AG|AG Ac|B2 cd|ee dB|d2 B2|(A4|A2) AG|
cB Gc|BG E2|A2 AG|G2 (3ABc|d2 G2|FG E2|E2 D2|
DE GA|B2 Bc|A2 AG|B2 cd|e2 fg|ee dB|d2 B2|(A4|A4)|
|:G2 Ac|B3 G|cB G2|E4|d2 GA|B2 BA|A4|
[1 AB AG|E2 D2|D4|D2 Gc|B2 cd|ee dB|d2 B2|(A4|A4):|
[2 AD GA|B2 Bc|A2 AG|B2 cd|e2 fg|ee dB|d2 B2|(A4|A4)||

